X:1
T:good bye piano teacher
T:good bye piano teacher
T:for my piano teacher
T:Ryan kim
T:copyright only hanna kim my piano teacher can play it.
C:Ryan kim
Z:copyright only hanna kim my piano teacher can play it.
L:1/8
Q:1/4=115
M:4/4
K:C
V:1 treble nm="Piano" snm="Pno."
V:1
 c2 c2 c2 x2 | c2 G2 E2 (_F2 | A4 A4 | A4 B2 B2 | B2 c2 f2 e2 | g2 a2 b2) a2 | a2 a2 (a2 c'2 | %7
 c'2 c'2 c'2 c'2 | c'2 c'2 c'2 c'2 | c'2 c'2 _b2 C2 | C2 C2 C2 C2 | C2 C2 _D2 ^G2 | c2 z2 c2 c2 | %13
 c2 c2 c2 c2 | c2 c2 c2 c2 | c2 c2 c2 c2 | c2 c2 c2 c2 | c2 c2 c2 c2 | c2 c2 c2 c2 | c2 c2) c4 | %20
 c4 D2 c2 | (F2 [Fc]2 F2 c2 | A,2 d2 d4 | d8 | d2 d2 d2 d2 | d2 d2 d2 [Ad]2 | d2 d2 c2) d2 | %27
 c2 d2 d2 d2 | A2 [cdf]2 d2 [Bd]2 | c2 d2 c2 d2 | c2 d2 c2 d2 | Bcc [FABd]2 [EFG]2 A |] %32

